T: Shorelines
M: 3/4
L: 1/8
K: Emin
M:4/4
JBd|  e4-e3 {fe}d|Jf3 e{a/}d3B|{a/}d B/A/ JB6-|B4-BJc{c/}BG|
A2{BA}GE- E3B|JA4-AzJGF/E/|{A/}E8-|E4z2JBd| Je4-e2z d|
Jf2{a/}fe{a/}d3B|{a/}dB JB6-|B4-BJc{c/}BG|A2{BA}GE- E3B|JA4-AzJG2-|
GE{A/}E6-|E4z2|zg/a/|Jb4-b3 (3b/a/g/|f4e/d/zz/ J(a/g/f/|
g2f/e/-e6-|e4z3f/g/|{c'/}Ja8-|a4-{c'/}agf>JaJ|g2z2Jf>ed (3a/f/g/|
e4-e2f/g/ Jag|Jf2eJB-B4|ed/B/- (3B/A/B/A- A3G|FE-E6|z6|
